src/lib/packages/icons/src/assets/line/medal.svg

<svg width="24" height="24" viewBox="0 0 24 24" fill="none" xmlns="http://www.w3.org/2000/svg">
<path d="M21.657 2.63901C21.525 2.39901 21.273 2.25 21 2.25H16C15.743 2.25 15.505 2.38099 15.367 2.59799L12.397 7.26999C12.265 7.26299 12.134 7.25 12 7.25C11.866 7.25 11.735 7.26299 11.603 7.26999L8.63308 2.59799C8.49508 2.38099 8.25702 2.25 8.00002 2.25H3.00002C2.72702 2.25 2.47504 2.39901 2.34304 2.63901C2.21104 2.87901 2.22097 3.17101 2.36697 3.40201L6.45608 9.83801C5.39308 11.1 4.75002 12.725 4.75002 14.5C4.75002 18.498 8.00202 21.75 12 21.75C15.998 21.75 19.25 18.498 19.25 14.5C19.25 12.725 18.607 11.1 17.544 9.83801L21.6331 3.40201C21.7791 3.17101 21.789 2.87901 21.657 2.63901ZM7.58803 3.75L9.99599 7.53799C9.10099 7.79599 8.27806 8.22201 7.56106 8.78101L4.36599 3.75H7.58803ZM12 20.25C8.82902 20.25 6.25002 17.671 6.25002 14.5C6.25002 11.329 8.82902 8.75 12 8.75C15.171 8.75 17.75 11.329 17.75 14.5C17.75 17.671 15.171 20.25 12 20.25ZM16.439 8.78101C15.722 8.22301 14.899 7.79599 14.0041 7.53799L16.412 3.75H19.635L16.439 8.78101Z" fill="currentColor"/>
</svg>

<svg xmlns="http://www.w3.org/2000/svg" width="24" height="24" fill="none"><path fill="currentColor" d="M21.657 2.639A.75.75 0 0 0 21 2.25h-5a.75.75 0 0 0-.633.348l-2.97 4.672c-.132-.007-.263-.02-.397-.02s-.265.013-.397.02l-2.97-4.672A.75.75 0 0 0 8 2.25H3a.75.75 0 0 0-.633 1.152l4.09 6.436A7.212 7.212 0 0 0 4.75 14.5c0 3.998 3.252 7.25 7.25 7.25s7.25-3.252 7.25-7.25c0-1.775-.643-3.4-1.706-4.662l4.09-6.436a.75.75 0 0 0 .023-.763ZM7.588 3.75l2.408 3.788a7.203 7.203 0 0 0-2.435 1.243L4.366 3.75h3.222ZM12 20.25a5.756 5.756 0 0 1-5.75-5.75A5.756 5.756 0 0 1 12 8.75a5.756 5.756 0 0 1 5.75 5.75A5.756 5.756 0 0 1 12 20.25Zm4.439-11.469a7.222 7.222 0 0 0-2.435-1.243l2.408-3.788h3.223l-3.196 5.031Z"/></svg>
